X:1
T:Title
%%score { ( 1 3 ) | ( 2 4 ) }
L:1/8
Q:1/4=100
M:4/4
K:Eb
V:1 treble nm="Grand Piano"
V:3 treble 
V:2 bass 
V:4 bass 
V:1
 G>G G>[FA] [GB]2 [GB]2 | [Gc]>[GB] [Gc]>[_DG] [=DA]4 | [DF]>[DF] [DF]>[EG] [FA]2 [FAd]2 | %3
w: Smauel~W.~Beazley * * * * *|||
 [Gc]>[GB] [GB]>[FA] G4 | G>G G>[FA] [GB]2 [EB]2 | [=Ec]>[E=B] [Ec]>[EG] [FA]4 | %6
w: |||
 [Ad]>[Ad] [Ac]>d e2 A2 | G>[EB] [DF]>[DB] E4 |[M:3/4][Q:1/4=114] G4 z2 | G2 B2 c2 | B6 | %11
w: |||||
 G2 G2 G2 | c4 z2 | B4 z2 | A6- | A4 z2 | A4 z2 | A2 B2 c2 | d6 | d6 | e4 z2 | d4 z2 | B6- | %23
w: ||||||||||||
 B4 z2 | G4 z2 | G2 B2 c2 | B6 | G6 | e4 z2 | e4 z2 | e6- | e4 z2 | e4 z2 | c2 d2 c2 | B6 | %35
w: ||||||||||||
[M:9/8] E8- E |[M:3/4] G2 G2 G2 | F2 F2 B2 | E6- | E4 z2 |] %40
w: |||||
V:2
 [E,B,E]>[E,B,E] [E,B,E]>[E,B,] [E,E]2 [E,E]2 | [E,E]>[E,E] [E,E]>[=E,B,] [F,B,]4 | %2
 [B,,B,]>[B,,B,] [B,,B,]>[B,,B,] [B,,B,]2 B,,2 | [E,E]>[E,E] [E,E]>[E,B,] [E,B,E]4 | %4
 [E,B,E]>[E,B,E] [E,B,E]>[E,B,] [E,E]2 [E,G,]2 | [C,G,]>[C,G,] [C,G,]>[C,C] [F,C]4 | %6
 [F,B,]>[F,B,] [B,,B,]>[K:treble][A,B,F] [G,B,E]2[K:bass] [A,CE]2 | %7
 [B,E]>[B,,G,] [B,,A,]>[B,,A,] [E,G,]4 |[M:3/4] E,4 D,2 | E,2 [G,E]2 [A,E]2 | z2 B,2 B,2 | %11
 z2 [B,E]2 [B,E]2 | z2[K:treble] E2 [EA]2 | z2 B,2 [_G,CE]2 | z2 B,2 B,2 | z2 B,2 B,2 | %16
 z2 B,2 [=E,B,_D]2 | F,2 [G,E]2 [A,E]2 | z2[K:treble] F2 F2 | z2 B,2 B,2 | %20
 z2 [B,E]2[K:treble] [B,EB]2 | z2 [CE]2 [CEA]2 | z2 [B,E]2 [=E,B,_D]2 | [F,B,D]2 [D,B,D]2 B,,2 | %24
 E,4 D,2 | E,2 [G,E]2 [A,E]2 | z2 B,2 B,2 | z2 B,2 B,2 | z2 [B,E]2 [B,EG]2 | %29
 [B,EG]2[K:treble] [B,E]2 [B,EG]2 | A,2 A,2 A,2 | z2 =A,2 A,2 | z2[K:treble] [B,E]2 [B,EG]2 | %33
 z2[K:treble] [CE_G]2 [CEG]2 | z2 [B,E]2 [B,E]2 |[M:9/8] [=B,,_G,=A,]8- [B,,G,A,] | %36
[M:3/4] z2 [B,E]2 [B,E]2 | z2[K:treble] [B,D]2 [B,DF]2 | E,2 B,,2 G,,2 | E,,4 z2 |] %40
V:3
 x8 | x8 | x8 | x8 | x8 | x8 | x8 | x8 |[M:3/4] z2 E2 _G2 | x6 | z2 E2 E2 | x6 | z2 A2 =B2 | %13
 z2 E2 =A2 | z2 D2 D2 | [B,D]2 D2 D2 | z2 D2 G2 | x6 | z2 A2 A2 | z2 F2 F2 | z2 B2 e2 | z2 B2 c2 | %22
 z2 G2 G2 | A2 A2 [B,DA]2 | z2 E2 _G2 | x6 | z2 E2 E2 | z2 E2 E2 | z2 G2 e2 | z2 G2 e2 | %30
 [EA]2 [EA]2 [EA]2 | [=A,E_G]2 [EG]2 [EG]2 | z2 G2 B2 | x6 | z2 G2 G2 |[M:9/8] x9 |[M:3/4] x6 | %37
 x6 | z2 [G,B,]2 [G,B,]2 | [G,B,]4 z2 |] %40
V:4
 x8 | x8 | x8 | x8 | x8 | x8 | x7/2[K:treble] x5/2[K:bass] x2 | x8 |[M:3/4] x6 | x6 | G,6 | E,6 | %12
 A,6[K:treble] | G,4 z2 | F,6 | B,,6 | F,4 z2 | x6 | B,6[K:treble] | A,6 | [G,,G,]4[K:treble] z2 | %21
 [A,,A,]4 z2 | E,4 z2 | x6 | x6 | x6 | G,6 | E,4 z2 | _D,6- | D,6[K:treble] | C,6 | =B,,6 | %32
 B,,6[K:treble] | =A,,6[K:treble] | B,,6 |[M:9/8] x9 |[M:3/4] B,,4 z2 | [B,,A,]6[K:treble] | x6 | %39
 x6 |] %40

